X:471
T: "Trotz dem Tode"
N: Z1151
O: Europa, Mitteleuropa, Deutschland, Franken
R: Liebes - Lied
M: 3/4
L: 1/8
K: G
D2 | GAB2AG | AFD2
d2 | c2B2AG | A4
AB | c2B2AG | GFG2
Ac | BAG2F2 | G4

